assets/icons/informations/person.svg

<svg viewBox="0 0 24 24" xmlns="http://www.w3.org/2000/svg">
<path d="M12 12C10.9 12 9.95833 11.6083 9.175 10.825C8.39167 10.0417 8 9.1 8 8C8 6.9 8.39167 5.95833 9.175 5.175C9.95833 4.39167 10.9 4 12 4C13.1 4 14.0417 4.39167 14.825 5.175C15.6083 5.95833 16 6.9 16 8C16 9.1 15.6083 10.0417 14.825 10.825C14.0417 11.6083 13.1 12 12 12ZM6 20C5.45 20 4.97933 19.8043 4.588 19.413C4.196 19.021 4 18.55 4 18V17.2C4 16.6333 4.146 16.1123 4.438 15.637C4.72933 15.1623 5.11667 14.8 5.6 14.55C6.63333 14.0333 7.68333 13.6457 8.75 13.387C9.81667 13.129 10.9 13 12 13C13.1 13 14.1833 13.129 15.25 13.387C16.3167 13.6457 17.3667 14.0333 18.4 14.55C18.8833 14.8 19.2707 15.1623 19.562 15.637C19.854 16.1123 20 16.6333 20 17.2V18C20 18.55 19.8043 19.021 19.413 19.413C19.021 19.8043 18.55 20 18 20H6Z" fill="inherit"/>
</svg>

<svg viewBox="0 0 24 24" xmlns="http://www.w3.org/2000/svg"><path d="M12 12c-1.1 0-2-.4-2.8-1.2A3.9 3.9 0 0 1 8 8c0-1.1.4-2 1.2-2.8C10 4.4 10.9 4 12 4c1.1 0 2 .4 2.8 1.2C15.6 6 16 6.9 16 8c0 1.1-.4 2-1.2 2.8-.8.8-1.7 1.2-2.8 1.2Zm-6 8a2 2 0 0 1-1.4-.6A2 2 0 0 1 4 18v-.8c0-.6.1-1 .4-1.6a3 3 0 0 1 1.2-1A14.9 14.9 0 0 1 12 13a13.8 13.8 0 0 1 6.4 1.6c.5.2.9.6 1.2 1 .3.5.4 1 .4 1.6v.8c0 .6-.2 1-.6 1.4a2 2 0 0 1-1.4.6H6Z" fill="inherit"/></svg>
